modules/themify-icons/icons/volume.svg

<?xml version="1.0" encoding="utf-8"?>
<!-- Generated by IcoMoon.io -->
<!DOCTYPE svg PUBLIC "-//W3C//DTD SVG 1.1//EN" "http://www.w3.org/Graphics/SVG/1.1/DTD/svg11.dtd">
<svg version="1.1" xmlns="http://www.w3.org/2000/svg" xmlns:xlink="http://www.w3.org/1999/xlink" width="17" height="17" viewBox="0 0 17 17">
<g>
</g>
	<path d="M3.587 5.933c-0.956 0-1.55 0.5-1.55 1.306v2.161c0 0.415 0.161 0.804 0.453 1.098 0.292 0.293 0.682 0.455 1.097 0.455h1.743l5.686 5.688v-16.429l-5.63 5.721h-1.799zM10.016 2.654v11.572l-4.272-4.273h-2.158c-0.303 0-0.549-0.248-0.549-0.553v-2.161c0-0.091 0-0.306 0.55-0.306h2.217l4.212-4.279zM12.005 10.987v-1c0.556 0 1.008-0.452 1.008-1.008s-0.452-1.008-1.008-1.008v-1c1.107 0 2.008 0.901 2.008 2.008s-0.901 2.008-2.008 2.008zM16.029 8.987c0 2.206-1.794 4-4 4v-1c1.654 0 3-1.346 3-3s-1.346-3-3-3v-1c2.205 0 4 1.795 4 4z" fill="#000000" />
</svg>

<svg xmlns="http://www.w3.org/2000/svg" width="17" height="17"><path d="M3.587 5.933c-.956 0-1.55.5-1.55 1.306V9.4a1.547 1.547 0 0 0 1.55 1.553H5.33l5.686 5.688V.212l-5.63 5.721H3.587zm6.429-3.279v11.572L5.744 9.953H3.586a.551.551 0 0 1-.549-.553V7.239c0-.091 0-.306.55-.306h2.217l4.212-4.279zm1.989 8.333v-1a1.009 1.009 0 0 0 0-2.016v-1c1.107 0 2.008.901 2.008 2.008s-.901 2.008-2.008 2.008zm4.024-2c0 2.206-1.794 4-4 4v-1c1.654 0 3-1.346 3-3s-1.346-3-3-3v-1c2.205 0 4 1.795 4 4z"/></svg>
